X:222
T:My Wifes a Wanton Wee Thing. RH.222
R:jig
S:Rev.R.Harrison’s MS,c1815,Cumbria
O:England
A:Temple Sowerby,Cumbria
Z:vmp.Simon Wilson. Review PJH, 2008.
M:6/8
L:1/8
Q:3/8=120
K:D
f/e/|d2A B/c/dA|d3 A2B|=cdc cGE|=c3 E2f/e/|\
d2A B/c/dA|d3A2G|FGF EDE|D3 D2:|!
|:F/G/|AdA FDF|A3 F3|GAG ECE|G3 B3|\
AdA FDF|A3 a2g|fdf ece|d3 d2:|

